Papirus/24x24/devices/video-television.svg

<?xml version="1.0" encoding="UTF-8" standalone="no"?>
<svg xmlns="http://www.w3.org/2000/svg" height="24" width="24" version="1.1">
 <rect style="fill:#7e7e7e" x="-21" y="-18" width="16" height="12" transform="matrix(0,-1,-1,0,0,0)" rx="1" ry="1"/>
 <rect style="fill:#6d6d6d" x="-19" y="-22" width="16" height="20" ry="1" rx="1" transform="matrix(0,-1,-1,0,0,0)"/>
 <rect style="fill:#464646" x="-18" y="-21" width="14" height="18" transform="matrix(0,-1,-1,0,0,0)" rx="0" ry="0"/>
 <path style="opacity:0.8;fill:#ffffff" d="m 5,7 0,2 2,0 0,6 2,0 0,-6 2,0 0,-2 -4,0 z m 7,0 1.5,8 3,0 L 18,7 16,7 15,12.333 14,7 Z"/>
 <path style="opacity:0.2;fill:#ffffff" d="M 3,3 C 2.446,3 2,3.446 2,4 l 0,0.5 c 0,-0.554 0.446,-1 1,-1 l 18,0 c 0.554,0 1,0.446 1,1 L 22,4 C 22,3.446 21.554,3 21,3 L 3,3 Z"/>
 <path style="opacity:0.2" d="m 6,20 0,0.5 c 0,0.554 0.446,1 1,1 l 10,0 c 0.554,0 1,-0.446 1,-1 L 18,20 c 0,0.554 -0.446,1 -1,1 L 7,21 C 6.446,21 6,20.554 6,20 Z"/>
 <path style="opacity:0.2" d="m 2,18 0,0.5 c 0,0.554 0.446,1 1,1 l 18,0 c 0.554,0 1,-0.446 1,-1 L 22,18 c 0,0.554 -0.446,1 -1,1 L 3,19 C 2.446,19 2,18.554 2,18 Z"/>
</svg>

<svg xmlns="http://www.w3.org/2000/svg" width="24" height="24" version="1.1">
 <rect style="opacity:0.2" width="16" height="12" x="-21.5" y="-18" rx="1" ry="1" transform="matrix(0,-1,-1,0,0,0)"/>
 <rect style="fill:#7e7e7e" width="16" height="12" x="-21" y="-18" rx="1" ry="1" transform="matrix(0,-1,-1,0,0,0)"/>
 <rect style="opacity:0.2" width="16" height="20" x="-19.5" y="-22" rx="1" ry="1" transform="matrix(0,-1,-1,0,0,0)"/>
 <rect style="fill:#8e8e8e" width="16" height="20" x="-19" y="-22" rx="1" ry="1" transform="matrix(0,-1,-1,0,0,0)"/>
 <rect style="fill:#464646" width="12" height="16" x="-17" y="-20" rx="0" ry="0" transform="matrix(0,-1,-1,0,0,0)"/>
 <path style="opacity:0.2;fill:#ffffff" d="M 3,3 C 2.446,3 2,3.446 2,4 l 0,0.5 c 0,-0.554 0.446,-1 1,-1 l 18,0 c 0.554,0 1,0.446 1,1 L 22,4 C 22,3.446 21.554,3 21,3 L 3,3 Z"/>
 <path style="fill:#cccccc" d="M 5,7 V 9 H 7 V 15 H 9 V 9 H 11 V 7 H 7 Z M 12,7 13.5,15 H 16.5 L 18,7 H 16 L 15,12.333 14,7 Z"/>
</svg>
